X:143
T:Lisheen Polka, The
R:polka
S:juliaclifford.eu
H:See also #140
Z:id:hn-polka-143
M:2/4
L:1/8
K:G
dg B/c/B/A/ | GA Bd | fa e/f/g/e/ | dB B>c |
dg B/c/B/A/ | GA Bd | fg/f/ ef |1 g2 g>e :|2 g2 g>a ||
|: a>g fe | de f2 | fa e/f/g/e/ | dB B>c |
dg B/c/B/A/ | GA Bd | fg/f/ ef |1 g2 g>a :|2 g2 g>e ||

